X: 4177
T: Blue Ribbon, The
R: polka
M: 2/4
K: Amajor
cB/c/ dc/d/|ea dc/d/|ea a/f/e/d/|cA B2|
cB/c/ dc/d/|ea dc/d/|ea a/f/e/d/|cA A2:|
aa fe/f/|ae dc/d/|ea a/f/e/d/|cA B2|
aa fe/f/|ae dc/d/|ea a/f/e/d/|cA A2:|

